packages/components/src/components/icon/common/ic-deriv-outline.svg

<svg width="14" height="16" viewBox="0 0 14 16" fill="none" xmlns="http://www.w3.org/2000/svg">
<path d="M6.98938 15.9487H4.77991C3.44739 15.9487 2.27747 15.4292 1.4845 14.4849C0.676396 13.522 0.362919 12.2446 0.6012 10.8882L0.785771 9.83643C1.26282 7.14062 3.84485 4.94873 6.54261 4.94873H8.7721L9.52405 0.683594L13.4733 0.0488281L11.316 12.2759C10.9596 14.3013 9.01819 15.9487 6.98938 15.9487ZM6.54261 5.94873C4.30726 5.94873 2.16663 7.77051 1.77063 10.0093L1.58655 11.061C1.40003 12.1216 1.63587 13.1089 2.25061 13.8413C2.84974 14.5552 3.74817 14.9487 4.77991 14.9487H6.98938C8.55579 14.9487 10.0553 13.6714 10.3317 12.1021L12.2448 1.25879L10.3854 1.55762L9.61194 5.94873H6.54261ZM6.92054 13.2905H5.57776C4.89661 13.2905 4.29554 13.022 3.88538 12.5337C3.4679 12.0366 3.30481 11.3813 3.42591 10.6899L3.54212 10.0327C3.78382 8.6709 5.04017 7.60498 6.40247 7.60498H9.31897L8.568 11.8677C8.42542 12.6792 7.71692 13.2905 6.92054 13.2905ZM6.40247 8.60498C5.54017 8.60498 4.68079 9.33838 4.52649 10.2075L4.41077 10.8628C4.34192 11.2583 4.42688 11.6235 4.65101 11.8901C4.8678 12.1479 5.1969 12.2905 5.57776 12.2905H6.92054C7.22278 12.2905 7.526 12.0171 7.58265 11.6948L7.58313 11.6938L8.12757 8.60498H6.40247Z" fill="#333333"/>
</svg>

<svg width="14" height="16" fill="none" xmlns="http://www.w3.org/2000/svg"><path d="M6.99 15.949H4.78c-1.333 0-2.503-.52-3.296-1.464-.808-.963-1.121-2.24-.883-3.597l.185-1.052C1.263 7.141 3.845 4.95 6.543 4.95h2.23L9.523.684l3.95-.635-2.158 12.227c-.356 2.025-2.298 3.673-4.327 3.673Zm-.447-10c-2.236 0-4.376 1.822-4.772 4.06l-.184 1.052c-.187 1.06.049 2.048.664 2.78.599.714 1.497 1.108 2.529 1.108h2.21c1.566 0 3.065-1.278 3.342-2.847L12.245 1.26l-1.86.299-.773 4.39h-3.07Zm.378 7.341H5.578c-.681 0-1.282-.268-1.693-.756-.417-.497-.58-1.153-.46-1.844l.117-.657c.242-1.362 1.498-2.428 2.86-2.428H9.32l-.751 4.263c-.143.811-.851 1.422-1.647 1.422Zm-.519-4.685c-.862 0-1.721.733-1.876 1.602l-.115.656c-.07.395.016.76.24 1.027.217.258.546.4.927.4H6.92c.302 0 .605-.273.662-.595v-.001l.545-3.089H6.402Z" fill="#333"/></svg>
